X:1
T:MacFail from Bunessan
R:March
C:Freeland Babour
M:4/4
L:1/8
Q:"80 bpm"
K:D
[| {g}f2 {g}e>f {g}ed {gdG}dc | {g}B<d {gf}gB {gBd}B{e}A {GAG}A2 | {g}B>c {Gdc}dB {gBd}B{e}A {Gdc}df | {ag}a>g {a}fg {ef}e2 {ag}a>g | 
{a}f2 {g}e>f {g}ed {gdG}dc | {g}B<d {gf}gB {gBd}B{e}A {GAG}A2 | {g}B>c {Gdc}dB {gBd}B{e}A {Gdc}df | {gf}g>e {gcd}ce {Gdc}d2 {g}c>d | 
{g}e>f {gf}ge {gcd}c{e}A {gcd}ce | {Gdc}d>e {g}fA {gBd}B{e}A {GAG}A2 | {g}B>c {Gdc}dB {gBd}B{e}A {Gdc}df | {ag}a>g {a}fg {ef}e2 {ag}a>g | 
{a}f2 {g}e>f {g}ed {gdG}dc | {g}B<d {gf}gB {gBd}B{e}A {GAG}A2 | {g}B>c {Gdc}dB {gBd}B{e}A {Gdc}df [M:2/4] | {gf}g>e {gcd}ce "Jig Time"[M:6/8] | {Gdc}(d3 d3) |]

